X:47
T: SCHAETZCHEN SAG WIE WIRDS DIR WERDEN
N: E0661
O: Europa, Mitteleuropa, Deutschland, Unter - Westerwald
R: Liebes - Lied
M: 4/4
L: 1/8
K: Bb
 | F2F2B3F | GFGABFF2 |
F2G2F3E | DFBdB2z2 |
c2e2d3d | c2c2d2B2 |
GABGF3F | FAced2z2

